X: 27397
T: Mockingbird Hill
R: waltz
M: 3/4
K: Gmajor
|:D>C|B2 D2 G2|B2 G2 D2|C2 E2- E>G|c4 E2|
D2 F2 A2|c2 A2 c2|B2 G2 E2|D4 C2|
B2 D2- D>G|B2 G2 D2|C2 E2 G2|c4 E2|
D2 F2 A2|c2 d2- d>c|B2 G2 F2|G4:|
|:(3DGA|B4 B>d|c2 B2- B>A|G2 C2 E2|D2- D>D G>B|
c2 c>B A>F|D2 F2 A>^A|B2- B>G E2|D4 G2|
B2 B2- B>d|(3cdc B2 A2|G2 C2 E2|D4 d2|
c2 (3dcB A>F|D2 F2- F>c|B2 G2 G2|G4:|

